symbols/web/edit_off/materialsymbolssharp/edit_off_wght700_48px.svg

<svg xmlns="http://www.w3.org/2000/svg" height="48" width="48"><path d="M40.4 45.7 24.75 30.05 12.2 42.6H5.6V36l12.55-12.55L2.3 7.6l2.5-2.5 38.1 38.1ZM9.2 39.05h1.6l11.45-11.5-.8-.8-.8-.8L9.2 37.45Zm13.05-11.5-.8-.8-.8-.8 1.6 1.6Zm7.1-2.1-2.5-2.5 5.7-5.75-1.6-1.6-5.7 5.75-2.5-2.5L31 10.6l6.65 6.55ZM39.7 15.1l-6.6-6.6 4.35-4.35 6.75 6.5Zm-13.65 7.05Z"/></svg>

<svg xmlns="http://www.w3.org/2000/svg" height="48" width="48"><path d="M40.4 45.7 24.75 30.05 12.2 42.6H5.6V36L18.15 23.45L2.3 7.6L4.8 5.1L42.9 43.2ZM9.2 39.05H10.8L22.25 27.55L21.45 26.75L20.65 25.95L9.2 37.45ZM22.25 27.55 21.45 26.75 20.65 25.95 22.25 27.55ZM29.35 25.45 26.85 22.95 32.55 17.2 30.95 15.6 25.25 21.35 22.75 18.85 31 10.6 37.65 17.15ZM39.7 15.1 33.1 8.5 37.45 4.15 44.2 10.65ZM26.05 22.15Z"/></svg>
